build/img/icons/!q.svg

<svg width="38" height="53" viewBox="0 0 38 53" fill="none" xmlns="http://www.w3.org/2000/svg">
    <path d="M16.066 35.296c0-2.592.576-4.728 1.728-6.408 1.2-1.728 2.928-3.6 5.184-5.616 1.728-1.536 3-2.856 3.816-3.96a6.318 6.318 0 0 0 1.296-3.888c0-2.016-.816-3.648-2.448-4.896-1.632-1.248-3.816-1.872-6.552-1.872-5.184 0-9.096 1.848-11.736 5.544L.37 9.664c2.064-2.832 4.728-4.992 7.992-6.48C11.626 1.648 15.466.88 19.882.88c5.376 0 9.648 1.176 12.816 3.528 3.216 2.304 4.824 5.496 4.824 9.576 0 1.968-.336 3.696-1.008 5.184-.624 1.488-1.392 2.76-2.304 3.816-.912 1.008-2.112 2.184-3.6 3.528-1.824 1.632-3.192 3.072-4.104 4.32-.864 1.248-1.296 2.736-1.296 4.464h-9.144zm4.608 17.208c-1.68 0-3.072-.528-4.176-1.584-1.056-1.104-1.584-2.448-1.584-4.032s.528-2.904 1.584-3.96c1.104-1.056 2.496-1.584 4.176-1.584 1.632 0 2.976.528 4.032 1.584 1.104 1.056 1.656 2.376 1.656 3.96s-.552 2.928-1.656 4.032c-1.056 1.056-2.4 1.584-4.032 1.584z" fill="#EDF1F7"/>
</svg>

<svg width="38" height="53" viewBox="0 0 38 53" fill="none" xmlns="http://www.w3.org/2000/svg">
<path d="M16.066 35.296C16.066 32.704 16.642 30.568 17.794 28.888C18.994 27.16 20.722 25.288 22.978 23.272C24.706 21.736 25.978 20.416 26.794 19.312C27.658 18.16 28.09 16.864 28.09 15.424C28.09 13.408 27.274 11.776 25.642 10.528C24.01 9.27999 21.826 8.65599 19.09 8.65599C13.906 8.65599 9.99403 10.504 7.35403 14.2L0.370031 9.664C2.43403 6.832 5.09803 4.672 8.36203 3.184C11.626 1.648 15.466 0.879996 19.882 0.879996C25.258 0.879996 29.53 2.056 32.698 4.408C35.914 6.712 37.522 9.904 37.522 13.984C37.522 15.952 37.186 17.68 36.514 19.168C35.89 20.656 35.122 21.928 34.21 22.984C33.298 23.992 32.098 25.168 30.61 26.512C28.786 28.144 27.418 29.584 26.506 30.832C25.642 32.08 25.21 33.568 25.21 35.296H16.066ZM20.674 52.504C18.994 52.504 17.602 51.976 16.498 50.92C15.442 49.816 14.914 48.472 14.914 46.888C14.914 45.304 15.442 43.984 16.498 42.928C17.602 41.872 18.994 41.344 20.674 41.344C22.306 41.344 23.65 41.872 24.706 42.928C25.81 43.984 26.362 45.304 26.362 46.888C26.362 48.472 25.81 49.816 24.706 50.92C23.65 51.976 22.306 52.504 20.674 52.504Z" fill="#EDF1F7"/>
</svg>
